X:7864
T:Im Fr\"uhtau zu Berge
C:anon.
O:Germany
Z:Transcribed by Frank Nordberg - http://www.musicaviva.com
F:http://abc.musicaviva.com/tunes/germany/im-fruhtau-zu-berge.abc
M:2/4
L:1/8
K:G
zD|G2BD|G2BG|A2A>A|A2zB|c2cc|dc BA|B2G>G|G2|:zG|
c>c cc|e2 cc|B>B GB|d2BG|D2FA|c2AF|G2G2|G2:|
W:
W:
W:  From Musica Viva - http://www.musicaviva.com
W:  the Internet center for free sheet music downloads.
